images/client07.svg

<svg fill="none" height="200" viewBox="0 0 200 200" width="200" xmlns="http://www.w3.org/2000/svg"><path clip-rule="evenodd" d="m92.5821 83.5948c5.4675-10.1942 11.2199-20.9201 13.9319-25.9677.977-1.821 1.561-2.9033 1.591-2.9545.113.1886 7.619 14.183 14.862 27.6864 3.331 6.21 6.606 12.3161 9.081 16.928.274.5059.295.879.017 1.396-9.199 17.144-27.823 51.952-27.998 52.293.576 0 1.147.001 1.714.001 2.057.003 4.054.005 6.052-.022.205-.002.481-.28.599-.498 4.931-9.193 9.857-18.389 14.783-27.584 4.355-8.127 8.709-16.254 13.066-24.38.198-.371.186-.6425-.009-1.0032-9.286-17.3194-18.562-34.6451-27.832-51.9751-.201-.3736-.421-.5123-.846-.508-2.283.0213-4.569.032-6.852-.0064-.556-.0086-.808.1964-1.056.6596-9.2201 17.2446-18.4511 34.4828-27.6949 51.7103-.2522.4718-.233.8138.0129 1.2698 2.0177 3.757 4.7545 8.857 7.482 13.939 5.188 9.666 10.3425 19.271 10.4518 19.455.3439-.64.6825-1.274 1.0182-1.903.8896-1.666 1.7596-3.296 2.6567-4.911.2993-.538.2843-.935-.0043-1.471-2.2822-4.238-4.5567-8.48-6.8313-12.722-2.2062-4.115-4.4125-8.23-6.626-12.342-.2779-.514-.2587-.8878.0128-1.3959 2.3104-4.3061 5.3185-9.9148 8.4182-15.6943zm.4615-31.1443c1.5618-2.9166 2.6185-4.8901 2.9095-5.4331-.5613 0-1.1164-.0006-1.6667-.0012-2.0863-.0021-4.1027-.0041-6.1191.0246-.2052.0022-.481.2818-.5986.4996-4.9522 9.2338-9.9003 18.4695-14.8486 27.7057-4.3329 8.0875-8.666 16.1754-13.0024 24.2629-.1988.3736-.1817.643.0107 1.003 9.2865 17.32 18.5624 34.645 27.8297 51.975.1988.376.4232.511.8465.506 2.2832-.021 4.5685-.032 6.8516.007.5601.008.8102-.201 1.0561-.662 9.2207-17.245 18.4507-34.483 27.6967-51.713.253-.471.231-.8129-.015-1.2697-1.617-3.012-3.699-6.892-5.869-10.935-5.67-10.5623-11.936-22.2371-12.064-22.4548-.334.6215-.662 1.2372-.988 1.848-.899 1.6842-1.778 3.3316-2.685 4.964-.299.538-.28.9372.008 1.4709 2.248 4.1745 4.489 8.3533 6.729 12.5321s4.481 8.3576 6.729 12.5321c.28.5166.256.8904-.015 1.3964-2.716 5.06-6.396 11.921-10.056 18.744-6.9264 12.913-13.7797 25.69-13.8874 25.87-.111-.187-7.3955-13.768-14.536-27.08-3.4425-6.418-6.8516-12.774-9.4071-17.536-.2715-.506-.2929-.8799-.015-1.3965 6.3287-11.7921 19.2582-35.9386 25.1061-46.86z" fill="#fff" fill-rule="evenodd"/></svg>

<svg width="200" height="200" viewBox="0 0 200 200" fill="none" xmlns="http://www.w3.org/2000/svg">
<path fill-rule="evenodd" clip-rule="evenodd" d="M92.5821 83.5948C98.0496 73.4006 103.802 62.6747 106.514 57.6271C107.491 55.8061 108.075 54.7238 108.105 54.6726C108.218 54.8612 115.724 68.8556 122.967 82.359C126.298 88.569 129.573 94.6751 132.048 99.287C132.322 99.7929 132.343 100.166 132.065 100.683C122.866 117.827 104.242 152.635 104.067 152.976C104.643 152.976 105.214 152.977 105.781 152.977C107.838 152.98 109.835 152.982 111.833 152.955C112.038 152.953 112.314 152.675 112.432 152.457C117.363 143.264 122.289 134.068 127.215 124.873C131.57 116.746 135.924 108.619 140.281 100.493C140.479 100.122 140.467 99.8505 140.272 99.4898C130.986 82.1704 121.71 64.8447 112.44 47.5147C112.239 47.1411 112.019 47.0024 111.594 47.0067C109.311 47.028 107.025 47.0387 104.742 47.0003C104.186 46.9917 103.934 47.1967 103.686 47.6599C94.4659 64.9045 85.2349 82.1427 75.9911 99.3702C75.7389 99.842 75.7581 100.184 76.004 100.64C78.0217 104.397 80.7585 109.497 83.486 114.579C88.674 124.245 93.8285 133.85 93.9378 134.034C94.2817 133.394 94.6203 132.76 94.956 132.131C95.8456 130.465 96.7156 128.835 97.6127 127.22C97.912 126.682 97.897 126.285 97.6084 125.749C95.3262 121.511 93.0517 117.269 90.7771 113.027C88.5709 108.912 86.3646 104.797 84.1511 100.685C83.8732 100.171 83.8924 99.7972 84.1639 99.2891C86.4743 94.983 89.4824 89.3743 92.5821 83.5948ZM93.0436 52.4505C94.6054 49.5339 95.6621 47.5604 95.9531 47.0174C95.3918 47.0174 94.8367 47.0168 94.2864 47.0162C92.2001 47.0141 90.1837 47.0121 88.1673 47.0408C87.9621 47.043 87.6863 47.3226 87.5687 47.5404C82.6165 56.7742 77.6684 66.0099 72.7201 75.2461C68.3872 83.3336 64.0541 91.4215 59.7177 99.509C59.5189 99.8826 59.536 100.152 59.7284 100.512C69.0149 117.832 78.2908 135.157 87.5581 152.487C87.7569 152.863 87.9813 152.998 88.4046 152.993C90.6878 152.972 92.9731 152.961 95.2562 153C95.8163 153.008 96.0664 152.799 96.3123 152.338C105.533 135.093 114.763 117.855 124.009 100.625C124.262 100.154 124.24 99.8121 123.994 99.3553C122.377 96.3433 120.295 92.4633 118.125 88.4203C112.455 77.858 106.189 66.1832 106.061 65.9655C105.727 66.587 105.399 67.2027 105.073 67.8135C104.174 69.4977 103.295 71.1451 102.388 72.7775C102.089 73.3155 102.108 73.7147 102.396 74.2484C104.644 78.4229 106.885 82.6017 109.125 86.7805C111.365 90.9593 113.606 95.1381 115.854 99.3126C116.134 99.8292 116.11 100.203 115.839 100.709C113.123 105.769 109.443 112.63 105.783 119.453C98.8566 132.366 92.0033 145.143 91.8956 145.323C91.7846 145.136 84.5001 131.555 77.3596 118.243C73.9171 111.825 70.508 105.469 67.9525 100.707C67.681 100.201 67.6596 99.8271 67.9375 99.3105C74.2662 87.5184 87.1957 63.3719 93.0436 52.4505Z" fill="white"/>
</svg>
